X: 1634
T: Johnny up the Orchard
B: australian traditional tunes wiki
M:2/4
L:1/8
R: Reel
Q: 1/4=100
K:D
V:1 
ef/e/|"A"cA .eA|.eA ef/e/|cA .eA|"D"d2"A7"ef/e/|
"A"cA .e.A|.e.A ef/e/|cA .e.A|"D"d3A|
"G"d>c BA|"D"ddf2|"A"ef/e/ de|"D"d/e/f/g/a2|
"G"d>c BA|"D"ddf2|"A"ef/e/ AA|"D"d2||
% abcbook-tune_id 6342d53ab4dc0038312d0c8f


% abcbook-boost 0
% abcbook-tablature 
% abcbook-transpose 
% abcbook-lastupdated 1665324375180
% abcbook-soundfonts 
% abcbook-repeats 1
% NFF Book 2020

